icons/twitter/twitter-original.svg

<?xml version="1.0" encoding="UTF-8"?>
<svg xmlns="http://www.w3.org/2000/svg" xmlns:xlink="http://www.w3.org/1999/xlink" width="128px" height="128px" viewBox="0 0 128 128" version="1.1">
<g id="surface1">
<path style=" stroke:none;fill-rule:nonzero;fill:rgb(11.372549%,63.137255%,94.901961%);fill-opacity:1;" d="M 40.253906 127.636719 C 88.558594 127.636719 114.972656 78.679688 114.972656 36.234375 C 114.972656 34.84375 114.972656 33.457031 114.898438 32.078125 C 120.039062 27.53125 124.476562 21.898438 128 15.445312 C 123.210938 18.046875 118.128906 19.75 112.921875 20.507812 C 118.402344 16.488281 122.503906 10.171875 124.460938 2.734375 C 119.304688 6.476562 113.664062 9.113281 107.78125 10.535156 C 99.644531 -0.0507812 86.710938 -2.644531 76.234375 4.214844 C 65.761719 11.074219 60.351562 25.675781 63.035156 39.832031 C 41.921875 38.539062 22.246094 26.335938 8.914062 6.269531 C 1.933594 20.941406 5.488281 39.722656 17.023438 49.160156 C 12.875 48.988281 8.816406 47.605469 5.191406 45.128906 C 5.191406 45.265625 5.191406 45.402344 5.191406 45.539062 C 5.191406 60.8125 13.976562 73.976562 26.210938 77.03125 C 22.34375 78.320312 18.285156 78.503906 14.347656 77.574219 C 17.785156 90.667969 27.644531 99.644531 38.882812 99.902344 C 29.578125 108.820312 18.089844 113.652344 6.265625 113.621094 C 4.171875 113.621094 2.078125 113.472656 0 113.175781 C 12.007812 122.609375 25.980469 127.617188 40.253906 127.597656 "/>
</g>
</svg>

<svg xmlns="http://www.w3.org/2000/svg" viewBox="0 0 128 128"><path d="M40.254 127.637c48.305 0 74.719-48.957 74.719-91.403 0-1.39 0-2.777-.075-4.156 5.141-4.547 9.579-10.18 13.102-16.633-4.79 2.602-9.871 4.305-15.078 5.063 5.48-4.02 9.582-10.336 11.539-17.774-5.156 3.743-10.797 6.38-16.68 7.801-8.136-10.586-21.07-13.18-31.547-6.32-10.472 6.86-15.882 21.46-13.199 35.617C41.922 38.539 22.246 26.336 8.915 6.27 1.933 20.94 5.487 39.723 17.022 49.16c-4.148-.172-8.207-1.555-11.832-4.031v.41c0 15.273 8.786 28.438 21.02 31.492a21.596 21.596 0 01-11.863.543c3.437 13.094 13.297 22.07 24.535 22.328-9.305 8.918-20.793 13.75-32.617 13.72-2.094 0-4.188-.15-6.266-.446 12.008 9.433 25.98 14.441 40.254 14.422" fill="#1da1f2"/></svg>
